X: 41170
T: Tripping To The Well
R: polka
M: 2/4
K: Dmajor
|:c|d>e fd|Bd BA|d>e fa|gf e2|
de fd|Bd BA|fa A/B/c/d/|ed d:|
|:e|fa d>e|fd BA|fa d>e|fe e2|
fa d>e|fd BA|fa A/B/c/d/|ed d:|

